X: 7519
T: Cobbler's, The
R: polka
M: 2/4
K: Bminor
Bc|:dB bB|de f>e|dB bB|c/B/A ed/e/|
dB bB|de f>e|de f/e/d|1 B2 B>c:|2 B2 B2||
|:fe/f/ ba|fe f>e|dB bB|c/B/A ed/e/|
fe/f/ ba|fe f>e|de f/e/d|1 B2 B2:|2 B2 B>c||

